# PHP release manager public keys, vendored so the build never trusts whatever a
# keyserver hands back at build time.
#
# Every release in matrix.json is signed by exactly one of these keys. The
# table below is the record of which, and scripts/test_release_keys.py asserts
# it stays complete: adding a version to matrix.json without adding its signing
# key here fails that test instead of failing a twenty-minute build at the very
# first RUN with "gpg: Can't check signature: No public key" -- which is how
# task 15 found that 7.0-7.4, 8.2, 8.3 and 8.4 had no usable key at all, the
# file having only ever needed to cover the two versions that had been built.
#
#   release      fingerprint                               signer
#   php-7.0.33   1A4E8B7277C42E53DBA9C7B9BCAA30EA9C0D5763  Anatol Belski <ab@php.net>
#   php-7.1.33   528995BFEDFBA7191D46839EF9BA0ADA31CBD89E  Joe Watkins <krakjoe@php.net>
#   php-7.2.34   B1B44D8F021E4E2D6021E995DC9FF8D3EE5AF27F  Remi Collet <remi@php.net>
#   php-7.3.33   CBAF69F173A0FEA4B537F470D66C9593118BCCB6  Christoph M. Becker <cmb@php.net>
#   php-7.4.33   5A52880781F755608BF815FC910DEB46F53EA312  Derick Rethans <derick@php.net>
#   php-8.0.30   39B641343D8C104B2B146DC3F9C39DC0B9698544  Ben Ramsey <ramsey@php.net>
#   php-8.1.34   39B641343D8C104B2B146DC3F9C39DC0B9698544  Ben Ramsey <ramsey@php.net>
#   php-8.2.34   1198C0117593497A5EC5C199286AF1F9897469DC  Pierrick Charron <pierrick@php.net>
#   php-8.3.35   C28D937575603EB4ABB725861C0779DC5C0A9DE4  Jakub Zelenka <bukka@php.net>
#   php-8.4.26   0616E93D95AF471243E26761770426E17EBBB3DD  Saki Takamachi (for php.net) <saki@php.net>
#   php-8.5.11   49D9AF6BC72A80D6691719C8AA23F5BE9C7097D4  Volker Dusch <edorian@php.net>
#
# Each row was established the same way, and none of it by guessing from a
# name: the fingerprint is read out of the release's own .tar.xz.asc signature
# packet, then confirmed to be published by php.net under that exact branch
# (https://www.php.net/gpg-keys.php), then the key material fetched by full
# 40-hex fingerprint and re-checked -- gpg was asked for that fingerprint and
# the imported key's own fingerprint had to equal it, so a keyserver cannot
# substitute a different key unnoticed. Exported with export-minimal, i.e. no
# third-party signatures.
#
# These are *branch* release managers and a branch has several, so a different
# point release of the same branch may be signed by a different one of them.
# Bumping a release in matrix.json therefore means redoing those three steps
# for the new tarball, not assuming the row above still holds.
#

-----BEGIN PGP PUBLIC KEY BLOCK-----

mQINBGhF6iYBEADYZivyGXqwODqy/A8CZnH+nZ2hQE9P7PVwUxsKHuSUIbsE78XN
akcakTaXFQnD8GssdDC6+OVhd1Rnua3Ihv8AHYgaHXTJsz0ObLZyFgwZ+QF8tmLa
vxFZS7I2G1SGm0erw6gcCw4eGUOtv9AoseJ7rjVmtQEfzWaf63iu4ru1CikxFO5V
aIHXnc64yjfNPNrsrU6M6MTXXjDUx1f5C/gOfy3f7DCjXgaoyfX29w/GJ9XgLZfp
GnxLnogbZvLE+txpiR0ExiaxMdqhxJSR+hBBfVETw74lc6IJOS7NfTTFFRXmp3Fc
5eURwAEW43VgpvcYgy+Nj3FM066Yx+GUa57Q9RT2yZUNozGhq7R3+y9y666ZTQAz
4uIQBVJuQqxODcqqBZ3/DEvFGpZRubZQCV37a1GsKtmTo4HCzmtrlfjZ1GGb+fPv
As6d4IVUMfuqxP5u6D6o70eUtsA7DnQbttVxgYj8oKQgSH+Hnn5sHK3HFOCuJEtZ
POxwDfIqZKo2ygwqpM6gA0oRTGJZ8k7LPoalrqRTpBvMLPDvMh4jw31YEwtUDiOi
FaSGd5ZS4B+k+i4vcRN4rayCLyeaV8Ly46LLms4The92VWyjGmOJu9FeC3N9AJpm
0j+KfMTIDObIIIfdut33OgfDD98mQOzY1+HwHyjAcAAm1VnTAgRrYo4hlwARAQAB
tCtEYW5pZWwgU2NoZXJ6ZXIgKGZvciBQSFApIDxkYW5pZWxzQHBocC5uZXQ+iQJS
BBMBCAA8FiEE2VwDvHAr6VFTRK4zdORLyQZ3AaUFAmhF6iYDGy8EBQsJCAcCAiIC
BhUKCQgLAgQWAgMBAh4HAheAAAoJEHTkS8kGdwGldesQAMQx6JZS+y1Frf5TKb6j
f0FzZIHnH1LGgZZ5UmV8nUI4gV5rt2RNoSCDL6/55h6OGtoXWSDWbEchJJNTCAzd
ab4qoeB1wCisbKG1FxeuLuvdYaauOvUtwIl7dNKED4ablI2WAV3kUDLamRLcbw7P
D/cBzy+F501kCIG/irzKdgyhzg9zG29RS/3aBnv6o3MQDw4nFx/TJC2/wQfA37z0
vJMRdOQrp6cngIauIxb99RGt0lTAmkdn7zqo0M9ztzzlossS1DStGAK89hJypzmr
wApQqPNQg+4N0yiiZ+9H59RoaLI5VlSOxRIKye/ObUb7orx9bPhcRg+bwWeEYVw7
77UZHNIahWnZNchq7gJXhSLSf/RRumEqlll11BYeqkfu5erYTzmvuqnqb9HvwU6B
QnZ4j150HZo3n0nWRxvn9DuGaLUIAGKPImzi5hc8fKfXz5h3OFr7RDYeggifeuN+
PMb8NLEqEHa0pZyKfjazO+GzrFz2AFaWbKpYU9Vbh3hHRSomkjfj/v6rWyfWlWJD
V99vJs6fuDRDTu4EGjtnkM+4Q6/TZHAQdF15MhVBREXd4e6XZyNm3tqgLWZj+Y6U
QJWPa9jmdRlPl2xlGe7NW+iS7cuUcxurIzmbShp7mPz7+QOb65choY27XGW0fPij
PnNzN9AINwYXCyHTB+Gthm31mDMEaEXt2RYJKwYBBAHaRw8BAQdAHBr7rD1XPMzu
HI9Fadnwln7ce2L1N7kY87ZaRzszU4+0HlZvbGtlciBEdXNjaCA8ZWRvcmlhbkBw
aHAubmV0PoiTBBMWCgA7FiEESdmva8cqgNZpFxnIqiP1vpxwl9QFAmhF7dkCGwMF
CwkIBwICIgIGFQoJCAsCBBYCAwECHgcCF4AACgkQqiP1vpxwl9RSGgEAqQm0aRio
dbsybCOIj+ifWzXzNN5LCXbXbxHr9Y/wF4kA+wQh6SJbonHUoKZZwAdBtXOvWT5d
lRVAImw6X0DTRXMGuDgEaEXt2RIKKwYBBAGXVQEFAQEHQMCYkBd2kHAO2IVulCKK
zfb37EiRylvhoxAt6ZXRWEVsAwEIB4h4BBgWCgAgFiEESdmva8cqgNZpFxnIqiP1
vpxwl9QFAmhF7dkCGwwACgkQqiP1vpxwl9TaZwEA0RIM+Od5FrQtnLXbcCMP+lyG
VArCvGDqy9fvm1xEHTIBAJDgRhaTdv8ETdMd2c2cc82wU0EqTRRS4Nr2S2CSW+QJ
mQINBGBlJjMBEAC2wbO/PIAzVSAp2kk7MXmzoXVRSPyEbnjN6qm77nrzvugh/beP
ZucG6lbXMxRsCj4GS9xLcGZoSQZhT/2GJdy+aUt7zf6sympJUTcgPdEVmf5uTxWn
QkBg0Bdm6h8xwvgTZVrdfwy7f7jfAsGSXKzEmJfJ2L6LHmAMI3I+csdPqKBHSzj6
hYjZYcwXSp2TAISkpKKmV9kpkY3ZKDoJCdDb5Q6bzy4xK+BI7XFbIMLWCEkfpUas
GXlPoV/9qvWWr3SGtnKjE5VjoVgA5iqgMUymyd2L9z3Bqy8+mKtmdxXyXg3O0o68
xG9o7pcjoavVbRWiqE9TqZcwar+42KoL6BchWYlMveZ9RO6X+umq9wGJjR3G99PE
cHtF6WomMXGieLqbUz/WW0GioL37vkqKMZYZ0tyITiJZf7am2J4Tigyq8kk1HG6r
mSbXSSOBcIXWv+aVnnTM14HKjsbf6jx91Vd/54yD7hyozwEutb4+Cz/O3R9Z3V6p
/OfcnATLXCdDg1hYNjWoz6TZclxGTpZJp7TevqEBhqQ8ua/QXHJyF6za3VFYXI4C
2XtaV6X6c7H2SvRphsnnVZEMWSBsZecW+u931eamQizz5dmWW7jCtQqD/rcybqo+
PetszW+Drsxg3zF9dPM3H+G1Xc4RIL1K4PhRrrpl+HwZtsOgUiJLMgrXPwARAQAB
tCNQaWVycmljayBDaGFycm9uIDxwaWVycmlja0BwaHAubmV0PokCTgQTAQgAOBYh
BBGYwBF1k0l6XsXBmShq8fmJdGncBQJicJ29AhsDBQsJCAcCBhUICQoLAgQWAgMB
Ah4BAheAAAoJEChq8fmJdGnchjkP/iYwps3xV3I/KJKSBNUHdm7obMuXW1qnDZ/O
XNh5L28T0Py8XTdSyF0T2EpBvSq0yiRuVpTVwE8aspZY+q/HSwltIBnHr1gp9kCI
lZ8exWC8BPB8yByqWl0YepGcQSfx8q1rT5UvcYrBdb9ocCd0noktPmonaqoyhrxW
qFPkJwejtMncJ8xcPDt0jlOIT8w4g+5FQTDLDYleozYZOpKlfV3P88w8/9QczYEy
BPXtNJIvqDr0mEc1Vyu5jKlAc3EU4FaqDmU/yJe62pL9InoUkRZ8pfuAvJ90D9mP
TnW22rITWL+WJV8u2LxDh5lff7+1tCfrxPeO1CJjJL9OOr3/y3nS3UHvgVcJ7z/C
VJwGlNrOeAlPGQMVj2Q1JxiBoJ/B1r39kX1OaEn+saiqmP4gfWdYfJTqS8vKWeCu
vn+A2qDCZzSDj+fa3BhxtYGCxNfwBMtKjF1EXz2Er1+clIVLqlenctEysyuSIeD+
wW4OSISIrwC3ezR4wWnIGACYMm6Iai020k+814wjqAASM0qUx/TxBdvKCqGHM7UE
Vg8deDxDBxQi1eJ5faF2QzJJeZUuAFD8hpJYBAjHiI724ogySUaXNsTtmRIwsytT
umdYFck67s31piygsLHutz/0Lx16yjyxtC+TPC7nmszKJN7Xgm8fq0U5VCumMswH
JeeHMVqrtDJQaWVycmljayBDaGFycm9uIChQaWVycmljayBQSFApIDxwaWVycmlj
a0BwaHAubmV0PokCTgQTAQoAOAIbAwULCQgHAgYVCgkICwIEFgIDAQIeAQIXgBYh
BBGYwBF1k0l6XsXBmShq8fmJdGncBQJic0zgAAoJEChq8fmJdGncIWwP/RFhFn+2
/X+dhZGy0SDwdvPA+dGXGiAEMC9BloT/CjZbVcMQ3tlA5A9Zytuyi1FBe09AJbLH
O4ba4XMZmNCxd2WISLPC1zjgemjWz5bryYFfRxA8Z1iqQn4z+kHlcLMpNeFsmuYW
Px/aW5mV1STdGv9pUHv98u3cOWNg56qRhoD0ktZ0lBoQjqxdcJpfObTC1VKD+B+N
Ml3QkBlzXRwmNk5Q5qlmxG+38EHU3hPPAxHhP+UupuW+M7OTFuW2WGAx0zp4D7eI
++5ViM4uW2ZNQYeKhLbAoSVO8PvPgCIx/n++pSOenO1HbYkk5oNU1ypF1JSg5eKe
KPMmmB3dEaII3ImJ0c8zJ+rg75gqxIzm7yi8kPRZeE7mLX6IpDuMvfuhn+DUqS6R
CRuOT7Q/0AxIaivUnBrVl+0P9MAH7h+dsz28DJ0SeBHeOQailbPE+Dm8QroDQYUN
hjlmkVwdes8f6IUhal9X20zxVkEAzw5qkN9twh+tvEvich/m9idrhExVLeUKTOjg
xOe17OQkJs45pdqmKt3otzNJTBgEOeMYHFMSsd7pewDONjxACo0jj6/QipNK1mad
7RTR96nerqCYSKqP5HDpq4FYUU/bLKxyt771Ir0jULSUfqkclwlsvIYvuQlnZmpS
UYS04vIH6SDqEMMr4S/0+kNRme4V3v8+80kXiQJUBBMBCgA+FiEEEZjAEXWTSXpe
xcGZKGrx+Yl0adwFAmBlJjMCGwMFCQHhM4AFCwkIBwIGFQoJCAsCBBYCAwECHgEC
F4AACgkQKGrx+Yl0adypTg//WkTsoeSfT5W/iRJ7AsoenQjdz7xzIsOlQoYKQds5
oCuHGHEyVKl54FcXOTAc+WaRUGwFWj2KlQpXm1CmqjvHS3kM6BueTjVm6tqYrmd+
SH0Ro5CtLDGqxd2ZXFup2GJlHwIK/+z7Bhga7cwfj072H/9fFyn8xmljEfK3IM3n
gt+urI96jc/q4U5m9frP9+ekPb+SeWus//vqujKuyoKkhmSHv75lkgPo7c1HvMx2
uYhzLu9r9edRVvQjM1/zB73sTKeAbRfv3CBq1w3AFljNTK1M3Q2G/ZZalswphNrG
6alqxeD+d0InKVXDCXwzz27lzk/ezzazQqzdzOjo3O+WClwXCbbLQoKAcWRQ18Ev
QosXBuV2HyzHEKv+Lv4TpuC6ze8FxkOp66Us/M3moqxMrvz5CDodYNsw1aYeKeZk
9LeBbrgW+t52eWVTYxlTYtLhXESqGvvJnzTCdD7Jd17w7DjKEyzCw6Cjr4z4e4aH
M55bxOrYkFjF3hSu2CLHbZUvMpOCLUBs2F8ycYgXJ2I5Oa5uzkUX12Xqz/A01uUl
4/6go2rXb5LbdMJa7dOMmo8zaJpcClIGmbpZk5zGLcCOkHsryMlRnwJPPtsOP+Br
tQJI9WL5fWHt0ACx8KW944vCH/dpGMXG8NP9ENg6rDe3/bOuP2G7Wuw96/sgn/H9
9u25Ag0EYGUmMwEQAO2bpeJVNAirlSk1Relq53K64wSOQTWEjuHL+Pg4v52/xduM
m/e0o04edwlR352LFcEcGuJZlSU1itzG0QwlvE+ziPD0K5lp8rpOe3ufpxsoYb9F
Oc/C8Mv6M4an7WfdoEe6kJoLr1EFyU/R69g1P2vOoDLg0hz0AUsQIfLilt0FAoTP
0DrpM1SVtXpGKOEhYKO72+9WtCDAT0zZdZdP9G6QmSafDBaKUZMKTb9n0FFzNnJR
Lp50PWCnroUGqWkQXnzY+cv7ugC2PDBjw0FiBeRCZMTC+9OPiGPVVOx//KBlzw3Z
M2Laxfp99gVpIkV3jHF8pPQMh1RyQjbSb7PEszB5Vk69vqQVXnf/AoMP/0t8oKny
a+9+tJSOWuQq020m9vFCNECGFFOkZoXSMM6ZERc+Uefmv8E+wXKVfbgUm3ZawWdr
Y5G3eCiybY+RfLenmv9bVV2rCBFUXECJXrPMQ8BSmlj9R5fAZWttcywhvWgW2k+B
tPQK7i2Pek9Wx7ztxb1tSUFxOXtdbcqGVe4TA6GjqNxQjOqejqzjm084q3e0v16k
gVYQ3lf5jkHHg+3il5zBjE96+q733JMlg6WzS6p1571PM8i50htwvKxm9AfwnwR8
zm6upRBwI6Zc8mN5pKa15N06UKfXbh95d3qbnR1k557gOmhpks7HERFQmMbnABEB
AAGJAjYEGAEIACACGwwWIQQRmMARdZNJel7FwZkoavH5iXRp3AUCYm/u6wAKCRAo
avH5iXRp3HcTD/0UaiazVBDOUYP/GVpAKzDIQM2WYWWzt+3jiyz1GB8wQkJlNv7l
7+eINcYcWKRmpfZiN5sijbMXSJE3uD30SXnuChufEU+jElMfP71o0zQyTT7rKERZ
6QmvM548OjG3tmST80ZpBD629AnecHhk6rPwzodouPRKx/SBBPA6noJdn8myc3Fj
1BUJDF5CBIaL6SBSreR0nXFshp7hmsYc46B1rhgij0c7YiFNljWopZXYUcC6erVa
WFVsZsU+5deTM4oFl7mIrkuHhtAE7kB1MbODyYy9SvoNpLm8R+eIYWNzml09qJYe
GC1qT3KmWtKdJVz0YlF2+qXyXSVMMaRsZ1KnD77QN7ZLTOuzsDU4tpsBPFihihSN
wx7ZDRt8uYZ/zrh4b3k8kruAxQBBb5YA8CQIaz00eLjLswdIQnACJvNhKYrVdO2g
9bPM2dAyK7h6GdkllVTUwZX63gT/nQICBuVOR0XQVBz0uJlEAQh5prmoXuCBz7UI
v+jR4MqVvb5Yg3ekxRiOo43uIJNF/9I7SYqRJF/QXhU0Fw+Og51EKeeeYNpXw03+
NeZZ+VXxBoZFr0uytPbkOPfzXxDSvqyxusPKVoutYQq5nX1NDVOk0AQf2U8Ka00d
YqwE9TUYUf5PYJTLiQzjeNYnktmWL+fCnF0gjJqhpLw1K48itXWDhJRdi5kCDQRg
h0E2ARAAuiFPWlxKVbiyTQM18C+6vVbdT5MSR6+5Ccp1IP9yEqznScthG6JWuxmx
Hby2evaPjW7C+b5jpk9gA9KRBnzIBPSliddtohHzeIa1k4c/rB3FXf0yl/RPfIPh
06aCRrWHKeo2MRtGET+3Z9c0p/QmsFSaTLKEthtCWQf6tpSBC6D0SzI4nEQwRH2p
kz4t78mIrn+L7wnGGM9wBDGIq7eX+6wa1TrNxVQaMxKqzdnz0VrxYE54bEPDBIqu
fwzLJ8RatsIIXgCjyAF4WYiRaCh7K6YgADRJhmQWNqW1tOawWNWZiaYtcgq0pOfN
nHT6NgmvjazRDyfbKaBIpwLQKaf6K4qyWG4ylYlqpoe5mGMr/zQECsBgRNbqd7Uh
lY9Kyht3/bHi72LAKR39JYREDf8qcwvqWA5Ul81sXEPG4n4sW+l7pWhIAeVzh8Lr
6Uyuh6DTXWTOOBZfgf3gF2nmy+lYdD9RDf9gwa+BRjW/L5V3bxsbO6yWyfPmjZmH
jSHYOam2LmzbDtn1O8sPZEwzU3o+t0JdWtDHdsH2c3vHWcuiyf7S//yB9yT3dI70
9ctC1SCqGFayH79Os6JVaZaou9s33nNZKcNFUenU/y8oQZcjbpqiTER3WZV+KVAq
ce/aTqJ4xzUzboYzjy5c2otKKFgbZaA2XzRqBUVTTSb/4Rr1TPsAEQEAAbQbQmVu
IFJhbXNleSA8cmFtc2V5QHBocC5uZXQ+iQJUBBMBCAA+AhsDBQsJCAcCBhUKCQgL
AgQWAgMBAh4BAheAFiEEObZBND2MEEsrFG3D+cOdwLlphUQFAmdPs+UFCQqxFQIA
CgkQ+cOdwLlphUS5Dw//Ztjq1h+KF74G8cZsEiq7lp3a0HWv9VsHzAo1iNbnOnyX
2WZTekh0P/x14vOGU7bQzTkozpeNIOlJAQLfjaPYCZExC3umyyf79mqSd7aLYXUJ
bSfwECdTb6J4PnL9EBncOlXkJm/4IeT0n6ONuzfeTXdAQ2VRREalOzZ52b/0/i1A
yQV1BEkiA0zOiglgPRFOTXPT9Q/9RpSM2vbOR91QOXzBcLiuB9grisj3S4bJOpb3
Zech1DfNcPmeibnvQ831vTeGdf/wszPHVT9k1Wk5lRg6/wnpL8F0zWeJDcpQyQkv
iikK+6F5JbVqNsZV+6Dz/CzZNn1P1zFQ0vL4GIrhjCsPeIMlTgXv3cBXEAk+5lcl
yJf7DKpl6g4RpwhWcC/bHxW3ww5fTRczURu3OKTTH5kC3Z1QahoNObg83tMedBtd
v+uW0+VN8ngjyI7Ry06mFhTpVieu1JUOACQ01jpauHHAURrSCLh0OYMZ+s327wrz
IlAPQP3YlrlV1sv7tEW6vPbaJ+cd7UbB2vgtHA6IjgSfUOZhwKrc/lc2YfT0rTwj
iL0qIZv183Ab/Wx8ScjK2DJkGZgrgyn9QCuq6jeGB6kDL6RRSzEMqNRGKJfMsS4j
vh+Ljghax7v5MKLXyutUx/S7MYB1KNQ5f7x7VPCjKm9iqcDJZTHsaZ/3M9HxZi+J
AlQEEwEIAD4WIQQ5tkE0PYwQSysUbcP5w53AuWmFRAUCYIdBNgIbAwUJBr8a7wUL
CQgHAgYVCgkICwIEFgIDAQIeAQIXgAAKCRD5w53AuWmFRMyWEACO9nAp/ahKv7UQ
fZ/bdNgj4BbSyVRQSCSH1ngkS0LL9r5qlhmvXoarD0943dMk6jbFdoUU5M7zZ62y
EFLR20QJtqTc+O+ApXCB7qm3ZO4MH8hB8Nr1qRLYlUx2yQNWqkMqQawo3XybdLOu
cIOB0qaHUnpSTgNLIVgYQYUoFOJFL8SSj03BdVDOYgI5pvDlSEC1HmQyxTCVehQB
5jhtCZrxjIT6dR3d2HTYMsoZRdSa6sfzCvnkQV210gDEUpgblHFeadem5LdQkP71
OTcItwdhxabL2uY+v/TWa+FeavItg3uAsiKV499X7Co34LN5NkoSA1Ieq78coZAh
6tY6nOb2EpbZxfWyBIbfzJ9/Ny1KC/rwXo2P1CESkoU7eniupXJwMWv7o2+Jzb6D
/lBhwrE0XDSvraLow8UmBdZyNMxxigpjUZhMo1uiqeHjbKaDZJvHQMBmhL4L1TTO
SaOcwCP4uIwTteJRu6k1YR9a1VBTlAyjPhzA+gHYjkqdnV15mOV2uDjCfKlmzxFE
D/6sxXXHkC/2I5s00DmqK4QHQf9lCz4gdF4Uiabs9x0ntCbs/LAVQqWmwEB5PPvs
nTn1kW+4UdaMUuqiYtkyJU+bzkel/L+JHHMZr6EEG50nVVEx0oG6f4n1RSE3pPEW
3vWjUZ7uIvjTpCoAN7MIM5ZCXCnwxrkCDQRgh0E2ARAA2NPzmrdm/BA3DUijyTXc
q0JQ0Pjdn8k26tVz04U3uX950U9Y3qWKn7Iv4uP+q82tgDL8sTzuwEErB2JQWB8X
HKgh9kPdIwk7u4lCclOuSsd2mQt1O1ROPo5fNVuf2+aqo72TUcS4A2Q57zu4QRYe
2/o4+8dQAbB3cKvs145oNpiQgbA+G2uY0Gj6/p4q74a/2O+OJhqWlVkZYO3fy4S+
9xkcueOg4AlXo4HeerzLIthwctgSrY8SK9p3dsiZ9dvgOcnp7moDlacnvBeQ8u1C
xSeomHtfzaaFZ8oqb95tIROAtMdbyMPLYl0fOXG9GhrmIIzoBMiwhPSDZjENGWXd
SamcCtiMlostJwzVSV6pM3N2I2GXK2IgW/HVe5LwH9BPlJ4iGE2LQVNqzlgTN2k0
+OyYen7bLP7UOHtBy3h2ab6VsCbZDx29Yxg/9PInGR+F8lcSJRDIc4rgGXQQ06+7
+8Upqj68OPWn1ol30TldNY/eLRXbxePMAziG96iAQW7DXXajLxz00oatsDB5Z8pV
RTP9AiZ/8sXswXLkH0VVnh4O5W80rdBw9vXwc+zJcaDknrJiQjfrMKEsuJ2dZ4Vj
RxGkYd9lZ9h9quMmtK2RRB5Nn0ullgTE4e3I4p5pJUFcQIQffXfhGAmeEh7u+ALb
OC7wLHScHuSPW5TiK2HnMDcAEQEAAYkCPAQYAQgAJgIbDBYhBDm2QTQ9jBBLKxRt
w/nDncC5aYVEBQJihlm8BQkInatvAAoJEPnDncC5aYVESbIQAJCHSdsTOzFfDxrP
njdjtPwWKYgnzjnONn8AIqmEM6/Vk9xbQeqEoesm2jfkUYCJHtVgvR8SL48V1mrS
Z27NVN4sowZsh7zAcTgsbCJu4csiyP0Ae8Ae7HUW+GXjm1HslzqAClopY969rzk7
gvivflvrluR49h9rZ1Cjr2vRfEY6JEpDIgqQlaBk9WFrFsCgC3J0AYqPxgsswEUw
kNrlx6R8gDnTa6ISQSVg9qk99BZP45zhgm8NBVW/nl+fOeM6LIvMT1hVB61Js0Mx
cKHqtcrIPeRaeS8AraKyNIpWZQp4BS9Yo9DgOyJKWVmXwkWK53tuiXjJk10gPQhM
vFPGIYfGd+iT6In3/bBNPA3d75mQMYYo46dKex9GKQruaghugAiFCoKKsB1e245E
OvmZ6rNNkIvMBvoDFThOoJosP0qSBxPBCTK7adwDqgvIVnZ6rSfDL9Wk5X5C5+31
5nlstEPrsyVywKpwd4WSDV0+ZSNY8Y48nVO2JUIjxyhpyf24gavhMDHFUN1Iq7Yy
tkb5xSHanKAoZbn7D8hKPfVawesi/rRG8W0oDTsEzVhLlWdNy1Tx/lq9bI6fwKP0
3sXCybj4L41ZB8ajDZyS9pFJzL2J3sadb5qHEi/26q9BoYOZKjJfq6v4cJf+iZYg
ua7gSKeNRYOw9B8LdA3iYmoWiU/+uQINBGklDBIBEADrwlPSkoKx46QITyWtXV93
J8AelmUavhDKkwAHFwTd82MPa5SbdEhR0e9Xri74z9utoKz0kUjtX5/R/0l2xrXM
qq+806AiCnqOC25v1wG/rqD2L3ZcUOWXnSuUxhgZ7mcmdBpC3AhTF2qt0fKOp7HP
61Zxkptpyy8Bm6fmmN5dehYg2Y+X2xGgs/xAXTYs3BWLT+c1seXg3Z8LgKbmoMsE
+d6oN435qSizm5/6VRsXRiZ/0kHXSpAcR4H8R7NqLLYM+QWeT/Wf9Bz8H/kcOPA1
bUza7NnbJU4zvbp9mVTm3DRAivmdrAWAYlzFHgTQUa++kwwGN8egXLaOyEotInNF
jqZlXkOrzA9e1v3blS3Wua7g+tT1gQVb+6axbFdJqy+rCwlIfz8bP+h2/azF8nHK
7qtM0mcsbHenJ+Fkc6g+urK/KQeALt3q/qOmfsiH0+TkGDX9UGQSguny5LQP2OFS
RT1wnLILyt4krdErHSgKLXgX6gZJrwLltSpc99YRIJpldu9tL2HImWQEYKXQ/tex
XLInJGx2NJYGbW3vHS01DMuVlZDkB4e1Rhbgix9HC5BUNBbk4SEnL8VKO5/oKeKG
/eOwWjrtFce8zsTApR3AWDTSkhb1DYFKYHUrxMRPG6ejy+aezAmZpKs2WA9SeT3z
qKdpuJJM6DCFmenJn8k4gQARAQABiQI8BBgBCAAmFiEEObZBND2MEEsrFG3D+cOd
wLlphUQFAmklDBICGwwFCQITTHMACgkQ+cOdwLlphUSv2g/+JnYKbERhp9dOCkkq
9DqmUKhiOH+PLIcaOZ9VzrPueIdYEA+R6yTnCxd/LviDWsHxUw4A+68NJ2rHpi6a
FGHbo/CA9U+xVmvDonafmaAyDovHQ7bZ5LitkRgyq2OWsUd89A8eSmcmTKc4f1Fe
0aJst1eA4LnJ0+gB4DseDtjGzfdFsTrkz2mOVZ++dP+ZYINNzaJI3YxuaTB/hvij
aVF+pG/ja/2SE39O1nVBDlRit68b5POh7ncxG18GLNZCJyDfo4HmmiTaxre2qr/T
x94uI8wm6Uxc18Iixl0o+GNYBL4yl4ox6odDwKotXbsMekGQPskPhJoCq4aNKmhL
XCKAFbzEMPKiN5DyK0ovBzYBmTsot30jgjfF2YIieWhvH0iuDey/QamHMMuFQOmk
Vb6qFCIFY6oKZVvfvzml5lojKDA/P68Ds2dkS2u00YhLPJEb7o5eRWDe4gvmWdyU
apWuRiR7bFZImz6dvapvoYpq+xBa7RTa+JJs7IHQzVfvPeUB+hmi2taCNwYhOYpy
GckQYf6NuCpkB34aQxpI9vUMrY7CLQ33OR6criIrn1hAxL7UVDaOXQsBLGkzhnxN
MaW0yU9/TMt++XncbrPLs9LBZBv/0daWuJOYYUiJgLHJ4x+kWAnErcIsWruqoXZu
Hizxnzibyo8NtbldaDMR769mgIc=
=SkqU
-----END PGP PUBLIC KEY BLOCK-----

-----BEGIN PGP PUBLIC KEY BLOCK-----

mQENBFV3ATsBCADJF+J7X+G2mNkkoKXVHuJ09fznsDL2AhAw0c+5RLXbcuDoiObG
+G1y6kjGSB5zrmkviEX0fe1xh8xA54LDG2yRSP6CYo8W6glgmJV4+K/pzZZoGobI
ppFbwDjP49VaD30HkhRJfZhkSuWEVqtbGgJ2jmaJGt8qB1bdVBAL1fPSfJo6IpM6
aj4jZFqvFq1V8gQMoww8qnekea1Dx1zlDJfeUzj02Chz+x8a8bo5TTyZTpRwDd3t
6KTqVzH3YeYIwzg4d+eKDvAT7ISbaQ7zqJD0c52u4L3H3aL1Lytt+w4I+Y8g+Q4T
P2xQvlIV+uKrYbMmnHZz7eVPEfNqS3TvkLfjABEBAAG0GkFuYXRvbCBCZWxza2kg
PGFiQHBocC5uZXQ+iQE+BBMBAgAoBQJVdwE7AhsDBQkQ6s+ABgsJCAcDAgYVCAIJ
CgsEFgIDAQIeAQIXgAAKCRC8qjDqnA1XY5QVB/9Hz9r7MEzS/Af/EtA3069wKrr9
IEUF9epvfVVlcGZgkciY1BT8vL+aMFf5uWIYrvnKQvwm4pheClMKalN830z4ireg
z2R1ofpp/kIxzDtW9hPXIEVI3FluqSN6cRyA31hzQYLp6HJZZ7Ph0xr9E3xiWQOz
/S1WpDoai/Oqv+8vnp+dfskxRcqzbu8j1AzjfMsWnoAJpLKceENkGlZzjxJRTVgA
wiSIgzqkVWMoT1csw/obmOe8P9MylICye8Vev1WJsnVB8uGkziN6VY2XS5nBT3pt
FchRLwpM+jSlPdHsAOIh/KPJ7FWHpHtmSlZJEqFUfQlrGHL399lolFbu4QbWmQEN
BFhJm64BCAC/9u6NdeqwFuJT5TNbKVrlVnmHihg96XSYGwl8UPiiYuO3JxXZaduB
w0955FOc6X2cAoOJrRYv1zZO10nWS3n5CfjUn9rLZ1dnmL87+gZcOUfejBo2EmLI
VM1yTsLZvigxIhjCUdiQDsUNhN0h1QMwprKAugyhtS4UI9DepsEt9KaqVQ4Jw1M6
N0b/enkQYs+PHk5TbWUqwdvuGDVeZI2poBo2SL5igUfe2EAOZLZo0CY+tCsge1hu
+fYxckEF4C8SltQqiXnk5Z/SvqhuRV0lvOYBshwun+6qgC5UJ8qHsfW7pK+Qewfx
nsAsW6gbuKorluCiRg2hCIwK3fAJ0SLHABEBAAG0HUpvZSBXYXRraW5zIDxrcmFr
am9lQHBocC5uZXQ+iQE3BBMBCAAhBQJYSZuuAhsDBQsJCAcDBRUKCQgLBRYCAwEA
Ah4BAheAAAoJEPm6Ctoxy9ie5VAIALXzzB78e3Fe0J83zOfj7VBHRoIsljdnlOPi
rIciZquOoeOOMpSdwgHA8sdlFxzspEDyN4X1YU2zJ5emE4x1bNSY8tI9h7Xflq6k
GJ3zlYa5SQ9w97Z0Mnas0j7wbJGeajPmbb6ZFfWY83rowHUuIujql+RN0Av2MKxE
XXeydOdZGImvzCoNltHWlmoHxI9+oerPOQ+04RxhFnCvwv5HyiN29O8sn08F92wX
RrKzLcudXJeUZgQIVmv5spY84SMldv/lSr18s3lPlvQDafPjbzUs7Q6dJFiiGdW+
sOW3MntJYAe9n8X2tly5owMs58N8BNThMJoLhtIm1MNZzoGnMBa5AQ0EWEmclgEI
AL9DhFt2kDBG9qX1Lp2ghUq8+7buFqPgiummDPhzQ0q2cZjoyRg5fAwmZ3UoadXi
RT7MkBcKP7h+jSdSc/AyX6+Svpfcq044yv0FvlPXCePZiJ5ikDSgR/gmeJzypBkr
PpJXZpnEH8WBL6is4LWYO/XGZI+4d8Jm4fYm0cD7jL7depi3Rm6xLfW9Ky/rceJS
q3RzfcEytN2AOY/TKe0OdLVBvtyDCEx7oBVccc0kNlI1sJaTC7UBId+tNFS3WKMR
RmhwYEgSYw3693JTg13loX/h+JBGg06rdYuOSdooz64AnrYCC4PO4SSffPoSLauW
Dco3/0vczOLsPuB1XCGx7K0AEQEAAYkBHwQYAQgACQUCWEmclgIbIAAKCRD5ugra
McvYnuGmB/0QOOnRT0WCmZbQlUo6yGaR0kigXSSbhgEqfkouNVOY80/aOzeAPg8y
R+5cxRHb+4NAm8SmAv8Opsqq3xOC6nEawyZDeZiCdqJXAMfTI1LPqunNhKy+dnFo
jIqOmn3rdF9CoC2DjY8XcON7y+UxPuWjs9vydpSv5u7s9oiw9kvUGXSUYzKYApL8
BRnoHV5QjLtCD79ByX3n5//iedC7FOkDmSpyJsABakz/FvFukqjJ1slkbSinGBqL
2G/LuE5/RGV6ntx0hK4/lhwB0ZZhIerm3hEmmUYsWUEPiE4DOROLwqa2OuIsQint
8wbxAJhiB7c7fYoroFJ1aaBiO4g287QsuQENBFhJm64BCADheJFbqH2hEgWoVQke
I1pdMFm4r90TTlG/+1ZtU13h/JJpC5CDxnYg0q3P8hDYvYvSP3vu381fjWOAdCMz
3sFHy1K261EeNy0QYbpjQJKQxGl2EJ8/jBmCF4/9qViaFbNLSTGrrKQiSvfok2xT
xDRO55ZUG9GyNRWdp0oAncN7uO6Ow3N1CodMVqwvRtfASUmWz5/XlGdIqA2WlQp8
byX0vjG0o/SiXxusYJ4Cv5IUqzD4sgTF7NZklyPqWUjBV00ZflPbyDfapHbD9b4I
p+woMEGtldDBz3UGqezbM26RtHXbsUZL4DO7itmO0Ar4g6vHlWwvH6rAL0XvlAyF
2wN7ABEBAAGJAR8EGAEIAAkFAlhJm64CGwwACgkQ+boK2jHL2J6CLgf/XBylSYZh
ntdORtF3mDVavl9Ms0roDHwMFRiTiGOG3ZG8Ujo+u3gHNcUx+sG8eyhx4Q3w1Tf+
Sh8SUpvriVxOoYutnWPvrMj3aKob/9QDA9GCqcethK5vc6id/5OaQj5sxSxJ4kOP
G3WRcWlVGQb2eHOHKu2hOZGP1n0jf1jTie/c0qPr09kZ7bhWNuEZKZcKPmoqv4BH
cCr7js1Q3NOxvonaM31iGAFl0YIhgxIFIJj5DW6WC6DNTDyk05AVTI2LxBEnZIj4
xx3AboFeZKbLslpuo7W4EdibfOIKvPqr/YFYJE9MaPiX//V+7KPAl6rSPT9ZHkOd
YFzN5UBV5KexUJkCDQRZJWLpARAAvbQko56DbN7nDgPUT3ynLivOyQ/Y3XrdlFLM
OAx3fx8Jq7d0+1iqB9RsEafrnufr816nRUWeIBvu7YL1LDrTW+a4dtm0wbFCHhrL
5v6JiZ7VwhUIWHH47ZNOKd6rYCeTxo2WoQkWIOGkNrRqdjG/GrhbhT7B7Thy1kAi
+70EobDfZhJBMwEGZ5/UGC/iL00FUirEcvF3B2GVZNrk9sUGNi75ALnFhdE641Ni
ydiBXXqXNPo89cWrAUdGn0/WHHB6UB+cPMjlvvaP5+wYjB34E9LATHSgnylaEK0H
tArBZ6nP/leDbJx5MlK23yoiBZvjTrqSDKS+vwPiJMuWKYyCFBz7lS+lQGOsJuOt
1iPBT5PjbRnpJvY6iEsYq5GFrCBKGbQq8nAvDdIlGxqvHi2HQvXsFOXWoAnSxsJw
72Izr8x9eei04hP0r66tqtJAQwGuwkxkZU/trIA/PaJe90LQFVCbLffZVRzJiC9X
FeB1KbzpUyR0XbDelYZT68Ornvtr5mLBfOm2J4urzB+iiZ5olmtcIo2DtMIkqYbU
1wGtBxPx01foUm/WwkW8oqcHapBHmo/LCnMffl8jcVTpVH6PKUGZy0U3etRb4/rE
k0hG6PeWuYItFg58jbYmnyhLy8Wpe1cmrWwHAhHCw2AFR33zS4OH5uB9+RzdGEKV
LfkrlcEAEQEAAbQaUmVtaSBDb2xsZXQgPHJlbWlAcGhwLm5ldD6JAj4EEwECACgF
AlklYukCGwMFCQ0oaIAGCwkIBwMCBhUIAgkKCwQWAgMBAh4BAheAAAoJENyf+NPu
WvJ/TiUP/R7bmeATDzAxRlT1GfQz9He+Axf0HE9FddNU63SGfdkeLqeeg7+NHY40
GXNlvQZqT1Ra/7+qnY2qXTx+b75mrZ0A8/5yDn6NYsD1hs75ip2wwUOKiV+yXej3
Q/2KK3A/tLTkDSiyBhPWRUJ0vNIs/Ymkxs70ChEChDLoEEn95BtzQRBqikAbE06w
UDlCd4PMOondv6ibaw0Wy/U7glO+w6cfR1AJ44/yMZb3eEUA2vwQmMxmCZQsk7Gl
Vt6nOwyIf6UWnarbMIIUhE7ZekkqPch7aGDhk8VzulIpCxBPJojpWjj0KwvYQg/i
0hnOUITSwRCnrNJe/cPZMPamfV34eKcP4X9TeDt5Dx8lINKvUGl9VyrYoI01HKXX
9iqvC7ZQetKeNHmRNnVd09dV/q3J996RUlzHkyXmjSh16HhnL2v4MmVbb4vIiYar
cPUDlJMUQ7xgfhRFCHd2dcgLu2QM+qolAoMSv1Sev5AW/mGEfCuBRy5jTneSqIk3
qykLuNt7rjGJWHwR6VWfWLhCUJ0xKYsxRHjoGosceUQy56D7Hf8efVUvXmmiqLUz
21v6xKe0r2yo9HUeVjHxsnfzia3FlWcvPyoeTHP+Cjhw/iRgKdGxNdd05BBKE2fI
DRxXS3b+dlfXl1JHk+SMck4WQZFMuqWpQzPAOb2n+hHrfMTi8vVxmQINBFsXB0IB
EACa2MgvyiiM6Zc5CrbnOowqVE9izKLxb1B6fjnQjDfitUoL3gYcbB4CtdH8fSot
VL6Nlo4VAMNa3kJP4NOsIrrCVtG2dluaykClDyR9iSxCXFXSQFXatrxk3bFTZL4m
vDtF18zdLRm9o7so19Rz11CeY0QbIj66aXiuvjRIs0Jo+FmAResH7BGpSXUPIO50
keKfbB3aLSPuroOocUrXIyv8MBS0aqWMGUCw20SVVTAwFyFS5poPAj+FWqyLBfjx
L/YqAhGk9sspxVWEoZm1Nl5lCUpWrV2h4Ut/wuiJCrTlmXVNmdmINDsgFLLIpF2A
1fGzTnZUqvtIM/scJoJShmMDMbNUvgrUp0sG7sJi7zdlTEVgwjeAi2EXs5pDVtN1
Njl0cazBOqpZPNlTXC46SZ3NQFVgRf1ouCvrBt9nvrqE2u72Q+KeWJn4DEcHt7Gu
igjYG7n4p+YnSLbRwf2TmXciDL8TKhAZI4AjhwKywxSzHjHt+uLgbe3NjCwjx+vr
+fOEXazs/mJfALyoN/os1+pcFxNlawv+n5F5Vu2dPoBEvGJjXfvrIuSTowxqkISe
of6/bmVRi2JNS6YBMYB8RoRtVlyEiKxgXdJKhXZB2ACIE2fdvYK3b+LRac+Pq0gc
UwZcHTwirHpZF929EuYUqgBrMhS/1E/pe4eb5S70yXuluQARAQABtCFDaHJpc3Rv
cGggTS4gQmVja2VyIDxjbWJAcGhwLm5ldD6JAlQEEwEIAD4CGwMFCwkIBwMFFQoJ
CAsFFgIDAQACHgECF4AWIQTLr2nxc6D+pLU39HDWbJWTEYvMtgUCYuFw5wUJCWf8
XgAKCRDWbJWTEYvMtpO7D/99E8HqHT8Zq9Q6s/PoaKMUcwcvrFQoqyn+wyno16Uo
l0pfAi1fxGtArUcJmcQEFyZZZdsf73TZ2ezZLIEzoh+loB1Cf7ESgno4YLJnOGTr
qa7khtb5+8XQK0HSmkuuhWiM+mDLDo+vdxlnYKeYMKlqJWCwHETKKIqrEe9QyfFE
mRhsBeM+YohoHKIl99fMpDn4D8GH5FBkBdo/0SEL3xMAu38PyWVIWeJ0wWCTwwwP
K6hOTyFfLmt5bJDaDo4FYxQmQthefygla05pnX8alLIIh1UXvh17kFqhbK0HetNR
WN2SmjSVfG+dUiBVWS+0Cvv31fskqPa/svU2p9LaeUFxlC203kpGu97eyGcErbkE
RmVZvXWlMI31pkDQ+5IisPg9l0x+4Q7z7jxkYn8euxMRWc4KvKemLbbocbkq7Sav
5Fso3uMJxzxYPO7dOpLOfNW6rR9R+t6e0Pcu/t00fDCnV66LUcH6RTsjDKhLVC03
DS7wVS8WULAWtMbrUMfr+bFK0SZ7gB6P/u9s3hM7uqN1/B9owSE5ZHHlDGy5Rvs7
ulVxJAYPFZLOfeMvS2fJj6fwE3im0BuvWOrcd0zzDD9mzbFRHqUmZ9bLn/YIsVqV
qnrzGtkCSJs4pqzy2ndY7MUE/XddB311tk+1AtES9jDa40KR/whH7CviW2Kt9Ilj
ubQnQ2hyaXN0b3BoIE0uIEJlY2tlciA8Y21iZWNrZXI2OUBnbXguZGU+iQJUBBMB
CAA+AhsDBQsJCAcDBRUKCQgLBRYCAwEAAh4BAheAFiEEy69p8XOg/qS1N/Rw1myV
kxGLzLYFAmLhcOcFCQln/F4ACgkQ1myVkxGLzLayKQ/+KUL/UMYm3ZUiww+XV4zS
vxcYMdcD1eXieuGCkZxwfbuKty2hcJM1WG1SuyBghTRGf3DXcxt8g6DBSNCke367
X6CWfLspE6eRBR2UBDQjy82bRgiquZCoXptu3A8DRYkXWGaGaVfLGGwZmp9T7NdO
NaabB12cg1n3pwGNF6vWTRF2n6obAoXQ9rKRZm9Dh0Fi8yGPDkmuyuNb16hfpq5n
l7Uq8+4Ylr9Iq9sZhPHpFY+CbCVnBRK8KQNxlFhc3QyxP0HqqXS6k0X0Om+9dAW2
2G8YeBWTA8sqlho40Vb8Co5oYwqejMax7FfkB4TXCHfPf4FarUTEZd/lAjDrrlmT
obPivOrZ9QCECwsOmEXX46BKkL154Xxjhy6XP0JSy9Ffj17SSEx6qEcmcJBTPuuK
ipk3ZEzxvZ2vU/KGIpXaxfnR1uuAlq6RIwT7cJ7ti0XRHG0UMEpJpFg15gUlI6Rk
Pp8KCngePcRtZnNQEnTFCBdm7Ui+zncUTlknnjqxelc2g6FEauB8PMPgm3mq6TuT
MDYicbYK1hGTkKxJ8wR/cC9bmrj4VibyOQJr8YiQZ/6s6nSqASL0RoajGBMhB3Ft
QuppiC5uUfDErTKiRTTVEAns3ewm0kcCmR6Yq3imZutuKoHTrHNWmm/ZdS2KKvAa
MSz01pcV55WvtIUQMQH2WdqZAg0EXP+o8QEQAOt/faLOy1ltLfFcIRJo0o/tS9eE
cofNUDxDNeT9Q61F2oMXi7uxRpnnJu69/9AgN5urM4aSL/amfIn5NSmT2JCkFHhc
Sb367UX3Hw3sNWJ6eGp7JePowEb9OhnTsJBuxIslZLUj8n9IRqi2snkIZqg5dnMT
ybjzvCTkgyEoJN961PeP0AVgNkUS0ibQdzGbqWPWekb2DLMMkW3GClkJamdPYmeC
A6nnjqZf2LiFhApf/fW6RBKKhQ/bTZaWmPpg8tooU+kVnvuLnn20lnxRI8aRnfsd
XHAiiqlYmIIBJdG8PkutEWkvucRDhvcJ7ka1UZ1XvRG02MNvsTHQ7AWhZdKryz2P
+ugX3g/omaQP3Tdga7Diy1pOwifcgoKB8S9fORjC20DcuvO2wnlVBgyAReejisxg
QO2yYlumfl1ZFV9epYvdPEwZy8ugyLWCKmBZkoBggGL4gJrKtb/3VTnXaXQMw1uE
Xx+RawTaKWDPdhbMBfDbQzflbLcFgFEANiA1932MD4piFfsRvHm4FQC8u51pAHbB
Rj6GZFCWvseS5/FlDhd+5DGzbYXf7gXpcng2djFOvxG/s+eBjloo58Npe255U8rG
rSfPJdHXs5jdDkPGJ90mg4zCjVbPpIn6lZQIUoqd/3iAOP9z9waf0VrWpMzfZ1f3
1FVoHOobuhczOqM3ABEBAAG0JURlcmljayBSZXRoYW5zIDxncGdAZGVyaWNrcmV0
aGFucy5ubD6JAlQEEwEKAD4WIQRaUogHgfdVYIv4FfyRDetG9T6jEgUCXP+peQIb
AwUJEswDAAULCQgHAgYVCgkICwIEFgIDAQIeAQIXgAAKCRCRDetG9T6jEjUFD/9p
ntL8QAV66p/blK/9PQs/h1oqO1t2/dNWpQ9WpiCkuFvHCrNbzXuahxECh+TXfy5W
CrsirmoCliq3yxu3YLjQBFQsmt81KhYk+9coewQ/Er71FE6oKU3reHx1vLK/qyGI
L611FT62+FOQ781XzDgQTtUARTNWUuiewPBHlZpssrGHN+gj6GG/wgesjHuxtaZx
PbaqKAOIYh8H6297fU3ksyiGyk3Lh7RoGsSKLKf3t/3hWVItMz1QECiwQNa51B3o
1W/XAEWUEiBaSwW1GhhgSUozbmpaEDlj5xwrk8vchevvgeE6C1iwea/Z0Lu9HHaH
dtbS7adgTKa8iopKTejiKuSqY+trgBg7uW/5YYW0FebaeYMWm4SMn6ApywuiTB8F
bKaSBtV7A7XDOCGhZd25eTpdPhtL7ja7ttXvcnRjB0ded4T5eX7M1gpFkIR18O9v
PryGV+CiN7i26SSwx1mPEBq8BqajzHKjm3HqZLJHo6SmV9ibcnKIjpZ7bjFnyy5i
+0vjpmJxZDsvBtE3LQ+OcC5X1rSQ80a9qe0w2HEN6B39DkDBwEOKlCVy2MsZT42u
D1ojFceSPYS7V3yeJKyivxSUA3HBXoAUfL4UFaENFhaLf1c6NaruPPH9MNLQCQ39
evsPFhYWJyG8H53RjIH7v55AGfzQJA/2wLpfTRigXLQlRGVyaWNrIFJldGhhbnMg
KFBIUCkgPGRlcmlja0BwaHAubmV0PokCVAQTAQoAPhYhBFpSiAeB91Vgi/gV/JEN
60b1PqMSBQJc/6lpAhsDBQkSzAMABQsJCAcCBhUKCQgLAgQWAgMBAh4BAheAAAoJ
EJEN60b1PqMScc4QAMfExi/iGk2BMxCAlJNsAUyEqEjLqBeXmVOMd2b4gOslhtTi
5/fLi3ghoxgjBadfzhRmXwnv0AFY+/3gWcz571Y+yZFKz7eBKVNFzqVWp/XFYfWM
3bOth0NfVkSTpzGDu8c2XHpqZlLGeaABor0bCeNlIbx4uNPU/2aUXcjrYll5nQVy
ESvRtzriwYXIbxSIQG432GxQ/oFc3Rk4VOsR1wH5y6Bbss2CKV84Kw2HZn5LJC5k
3eJniqBVcHAZz1l8VCc9RzcTwiP3WPA1Jlo6p2+KgVPiZy6telJrxBtk3caSor3K
CR+ZWiFZwBGtgN2p7MO1lOche5+W/Tx/cRbDyaXFHO/q3Nhdw+nmPFmPrUks8isb
kWBe4RXkYn8EkozjA6edJIFEdn/+YBkQ/Kw0ik7RqvaVQ17SD7dsRJ2P0h+jvDJr
rJpPP20utbehz4xGQRjjvS62G1QXBwmQB0c1rhUyGncofqt99H15QmB2hwGYjeeU
xA6HI9V8ZYYi3MkRsA7TJ3NiDoyVI8sQF8BcFalThghbaKd97Y+EwipjA/jUni1p
gpgy4/NbeK/fjtgNgPAIRDAQgu5vTeg5Q3RjHjss3Q01E6fXHW5y0XNqiTZPENwu
PxSPNkqCbThNG7rwPSX8+RhFPlf2RLjI/mGEQs+rd4hSEgo8VpVEyB+RsOQNtDFE
ZXJpY2sgUmV0aGFucyAoR2l0SHViKSA8Z2l0aHViQGRlcmlja3JldGhhbnMubmw+
iQJUBBMBCgA+FiEEWlKIB4H3VWCL+BX8kQ3rRvU+oxIFAlz/qVYCGwMFCRLMAwAF
CwkIBwIGFQoJCAsCBBYCAwECHgECF4AACgkQkQ3rRvU+oxKNZRAAsZY0CFie5NMA
igq3A+wNpvqQlXdNwFqIPl7NddhfVYUQoy4t6diQIjNG5Y4WRlHxGvyImPu+II9Z
XlueKJywo2rgB/xgherxCdqbfSBKQej6ManNlicN0UNqNhrHvBUozFSY+wLpGF8S
TQkAVeGiqsU6uy5TD5sELgs68XN25+ZLySUmriSulh/WSnkJbr8MvfxhGuaGrl2P
KK4DyIk+3KXFxH61dKbIa2CW0KIdLgR047IbSE6x+Qc+ogp3lNvsn6kwaKYKn/1h
XU0g1sWlYgbekXqyikwtTlgeHRartKB8NWaS4/FRoQKFNXNL3LqTcPCFbtlGlxLH
2ENHBocXD95O5J00f/sKlcqvSj/7O6+r6CkAds8fUZ+KSg0HzuVJ19R0z3lBO95C
NL7ogVtBH/mkIQCtpn3sQ/TYDajjmefZtX+A69lGqo+4llDysnSvKp/FFaP9xEqu
236T+fR0pBcm3/SDmz4hWAgceh7mG3OxfKO/F+lIv6+63xh+2vyXILMaoVRlpfnO
myDCnLgUx/3e209iJC4b+lUPh1LFzfjvEvTesH7QXpgi/pIMq4D1jL1uPbFG4lvl
aYCVvrurATu6sa+ACQxezd15UxYnWgfkoHW3XmY5Tca6d3+rdY7bUZCPuV4AuXhx
X6gNcj7fPWJ0gwRZBZqhjalPs+dTDmu0KERlcmljayBSZXRoYW5zIDxkZXJpY2tA
ZGVyaWNrcmV0aGFucy5ubD6JAlQEEwEKAD4WIQRaUogHgfdVYIv4FfyRDetG9T6j
EgUCXP+o8QIbAwUJEswDAAULCQgHAgYVCgkICwIEFgIDAQIeAQIXgAAKCRCRDetG
9T6jEo2yD/9PNspNKjiGq0u7CBxY4XrFXYNzGVUJUQxnCZk5o+K1zpU5VCV8XjXB
rehwSe/17hAakl+5j+qFt/prORPHdXPyKyI+SM/Omuc+1AjOU3OPApwrpX0AsYMd
Di5BtpXiJ8RGBNEsKJN+hCikpNkUXVlbluvcytCX/je4TbnJdRFFSJCdP1YXAzrV
bXCVFWgTU5g5SwPEpDxs9Qzvgg35PG/U5QiFSTCNCokT1Hdf+S2a+h5nxSnqm2Vn
80NyNBy9y4kBBCkU18NzR96cWxiccshR8qS+7Tg1EIBFFnheZkR2MQukfxCHliX4
0pGipyHE5Kf8huYgNRiHsfdYIfzYQx8lfvwRNq38QrMihIfcBZfl6z096J6Aj6Xi
A5VqcKDdD0gVw77KCkRyzBtGt6kSqStF9JYE9RjBb375qPsvCVhW/alpScnRtJzV
ytDT9xeqe5F0V6/GhNvnlgBo3I2p+33gDb5TQOFwoidV46lXlAYo0sAbXJPw9ZZr
HE661HQ9T5CLtJ+cadITX3638Sc6XcsdbD+upU2V1piQ9gUvgCNdYGjcYMXTfe4l
7x+6pthE0lb7u+q/nyzTozez0xoCWygMJlETQXKns6EnhMi3phAuUnhso3fWAvwt
OgHW9QaL+rx5npad3wGyRo9xqTmrE/El8FgALXY2XfggH/zQhIwNIbkCDQRc/6jx
ARAAsFh2uyrRLcdiioIXpfci8C8eOC0Z7ili4xjax6oyMukUlgXDilVJ3sLZc6/L
oAABN6jF7Rnd7wi6RLagyeEYIQa1fWFSwK6/W2uHJZkoK9YgymROMY0e9a5MBHK0
APSKmn2jkJk84/zCaBK2DjWreewnwK0LPkneEmCci02fuh3UmVcjObQ6KKKJE6GW
qvxR0NYCrUFbiJDO9tvSWlaPuMUJ/Dfp0ArCr25f/QE8V6Mc7H9lMQ7DjlvjIvag
Jkg3Q6RiLFpBZr2Z0Tz5y10ZEIgnKu9N2bfwOWpHuCTy1d2Vb784bwN+0M/GBPD7
nfo0y272eniof1912JFBo7Ww1D32OtR024iynA2JhG7Q/Wz2vYHj4TT11XKVSnfq
/VECQPjrJLec2zZzsdSQjSByifLNpZethuAXEu+gZz0swrRrg51tNcT4/EOahB8A
XKSr1o+LEceg0sYYnnjJtxWdknAmq89rzWN7JgyUnNpTlmJRYEMMM6gLMagOy2+V
ZmLkkSihFgfF50Nq3KAGlLgpvKlP832v8p/e3mWvVSjDF/V+7XDALmEQ9HxJkvc4
3l+uIf/rWXUJ1KtibbYc+KiJzbP5UkmIQkwuR/RWfYRXuV+y4mJ08LOaOk13o7V8
SLWmBf+C7XbKv20+YCPzzaj/vok0BYyw1FKBuUt1PP+t9fkAEQEAAYkCPAQYAQoA
JhYhBFpSiAeB91Vgi/gV/JEN60b1PqMSBQJc/6jxAhsMBQkSzAMAAAoJEJEN60b1
PqMSFpoP/Ahxle+KKiqzX9K7lGh1n5tS5PvvwgKerkmXjDpCUk/+DZeX9jt2jwO1
1ZOHWr7xwNyK0tOdyzO8VFG9BZ2qyjJSoP/93+ibb2r3oHus3xt6o/7On0v/BIKG
ZEt7MsBh2M8tvfbIGSse3hf6ZFY/6JYA0PzKZDObHKQ4WNax474XEfLCzPDuQ5Dn
8k2hIkbqYTERfRttabt5CD3+Av+LTDdE5jQc3fvS+p+IkKKFbMcwKIY5SEJeg45x
jOVOyKN7n0KgrhjoSTXTD27mh/2bS8YZ67tZGYh06D6BkQwFvGHYwZ2CJY1u90Sj
4DKZCIi+eg10rG/O6igS2d2gZI2TtjcU9xlD2wgGEP2+SUNDnrtsG32A2fJa/qwE
xA//Wepq5jz4JlYPhJl6V928gZXy71rpJ2UIBBcmRIkFDVrD19TC/lV1EvVZB2J4
Gejw0j0RD/qzf18LDWgioO+g8d1XMavtDY/XOqhD6IguHkBmu4knO8pR7GJUPai6
8EgV5jqBkpxZKU6MhIt90gNhamaiyLxtfs+7Kok4lm03Y2fBkoQMGQw57GzVMbnv
WImBTVMBJCYXMZAKWsBoTbVpGw7U670UQB2efAjAzEb6WinxnKRfkZckbpk5RAoa
YvrzV91MqK9q2g9dmKJSFBm41XY972EZMHb6EN3GSaWWSx8k/Zw1mQINBGBd5LkB
EADOcegzhSUO+DqPpQSTRyVE5mHE9dAhpexUvAmyT3b5rJoOgUXpI+/VzKa2t40g
kcdkg/uHZbMGTQg43fvtsY1eD32uveJK0rMntBINnOaf7jDRa9QdKqXWyQIbOSM/
yyyItc6n2mFC4rZHaNU1QwZCPGEYt4PTgTmOiFj6NHfyWMIUzITYa/7EkuFcV3ti
qeu8Gm2cGllFgaQ09/3dhLzblstggd4f1A7z75aoGmMy6xvwFzc3ZAy1rxXdF5QC
pds+uvWXkrpNJpRGZJ4eR8O42LODJEpgRGk4LA+jvZunW0gtJOIKmAGfX2ISk28a
rCR129dxahHHKefUS8Qc2zTK6/I/Bp/ZMVc/NC3os6JurQJD/Kff4amhNaBYRWD+
Nn7fR+itZ3HPBH2yf0nzL0cgwGt37GbQXGqRvHcwmoABY9m3WZVC1ImdOS6T3zMr
UC4ATyD/qtUs6NuxyV22C1jLRtGqu2YMdAw+s1G6V6Q3Y0SrlRqw0Nb4Ug0gMwKZ
dVCU+22qGmVJ44D7fSr7AyIZmSrC4i6IoF9I0pcpZYdIImgOBnmSmwOIin5/k0Oq
g3gZWZAn2YV6qpVn3RjVz/GkFkml31TneDi+aZJSvmypbvTjkaH/zALwKpcSIdVZ
YlmlWfWprG8UY3Wc3XJq6zRYjG9YAdgZLzH+7B7yr/VR8wARAQABtCFTZXJnZXkg
UGFudGVsZWV2IDxzZXJnZXlAcGhwLm5ldD6JAlcEEwEIAEECGwMFCwkIBwIGFQoJ
CAsCBBYCAwECHgECF4ACGQEWIQTmCRPk3yCZB9jjDZZlmpfJzyp5WgUCYmuyVgUJ
EO1yXAAKCRBlmpfJzyp5WoQ2EACCVGtdOTFMQWF7cpnAbNFSGzMv9dffE7aOacVa
hEcRMuu5O5ONhZMlKweXjXJjmXJga4XxZifcopnoJEiiAmd6eb1odeHfrXAarKig
/HqCHXtTFBc0ADEgIew9ErHjKCipg3uBAxvR8ndCV/xDmAIDdZGM7uhklYvtk68j
gzK3tzYyDzes+eQKhjQdXfHgp2MqV+aeuuy8csFWvJV/DJDTXFMeDwAm9tB8fMqH
ZDOlF1jpl+FbXS3NdN/Oee8Ltja+x5iTMMI5lVmnHpemx62W+O2yCHUdd4TXxI6a
fvpKXnHDjsXZoZoLU1iYwVtA7XGIZTCzfzWMvFsXtXp+3GsfOFFZteXYk4XgoF+3
m+VRUDXckyd33Hc2WZDIe4PKYU+SjxV9Gn/Ltq9XzwPb9UgLoi6uFRnJo9r4zATK
eU4e0mK9mZyy5Ndl57tHXsEd+r2Saih0kv0bX3LxWI8ab6JWpOCFWY+3nVUXJq5a
H3Gtsdv/XUqk+M7616LIsdDZbLZ789QrE9mOEvADns9wIjt8XFcd//5k7/OM/5f/
GK0+p9dv51uSnuyqtX21StG5/Y+ixu0MuK7jK2gSmQ0HwoU2uzlUXvFyIWgEH/+Q
UgM1QoflovBjp+5cwIb7CIl0sqPDoRbaWWAqtgiRIFeI/UcIss2WqHUY+bIZbtip
SA+Tv7QoU2VyZ2V5IFBhbnRlbGVldiA8c2VyZ2V5QHMtcGFudGVsZWV2LnJ1PokC
VAQTAQgAPgIbAwULCQgHAgYVCgkICwIEFgIDAQIeAQIXgBYhBOYJE+TfIJkH2OMN
lmWal8nPKnlaBQJia7JWBQkQ7XJcAAoJEGWal8nPKnlaeLQP/3dEYpCNYxSx6itL
IkMnVifdWi7Oe7ATqIGfIO5Z4uZ9E0JCv0CDHy4AMQ78NG67zK5XSngoCGHdsXUw
9h857dtXTqVKpG7wDABSJQC+g6hu4sK67tpFlu8Zc+IGtGc2eNjTFSciMdlCaocY
+ehWVVuuEew7KvdVfEMxJILRk3grhqzsXo0PaePqjRK/lx/wYHDW7255ALibJ8Q3
yf9h+LOdEa0qH1xsdSP7G55t1kBCoGsFbT8sPLNzFMtqzuiTgQgsTMNOeiwOrPRU
Iw4yVQOO5svZ0+agjOGf0iklG0heQMC7LGKFAzKIFtxVrV6hSgwHt7y2fA5RvRBR
0zZG6L5bUkP0/9txF6c6HsSVihAOpX2Mypel5uHDgnqq6eGbMzG40MoOmnaWcFrI
CNr+uZLY1FfAlr1Nl4syiqXF36+rA2e53QVcPp2nlv9IR+ijWtUVIO+xcpAFKZ5N
wWERO+oQoGNkquW7UK4x8jO8ezkYs/nC6Y+cJ3AiuPS76avnP47/SAvbyVLDamyz
yt8mSMsnyqgghz6ivqqWE810i103AfFCjDokNTd0uzpCcL74VN5pFsveI563xWin
bIoAtgPvFHd18NfYgkyLbk69V4s/h0onD8pEid23ExDKXKOXBZzn1Bw57z/ZFCxy
SlULQs59BMFTdY9VXTqX8l2pahmLtC1TZXJnZXkgUGFudGVsZWV2IDxzZXJnZXlA
c2VyZ2V5cGFudGVsZWV2LmNvbT6JAlQEEwEIAD4CGwMFCwkIBwIGFQoJCAsCBBYC
AwECHgECF4AWIQTmCRPk3yCZB9jjDZZlmpfJzyp5WgUCYmuyVgUJEO1yXAAKCRBl
mpfJzyp5WlRDEACcPD/Dra0f0HW4qqu0ZYeorsmRqyI2+pb1tsXU5qLn7VUZebyR
aLkt3kq/E3emnxB2Mftn3OW9YzHDWQcjczHtkKPrfeU82Ja13TF5vutyHUSTn9Rq
zL5ftx+O4OZ0H5cqssnypgdnkBA5ca2G2s3DqnpthZP7e2Yh3vPEEHg5HvE7GsH1
cyN73Efp4xAJltFSdFVtNDrZ8xIjw9iUnnl0Pa6YxFKuy5AsLTv9T6yhAP882o5f
W1jqiTUpKq4l/GCjKZWIjBgUQaUPDdWISNhG0qoK/GUNpR/WfaJMdyYFt9bG+NGS
x+g0RXYOWmn3OEVga5J7f1pkXgciOdHY4FMRGWGGhDDcfaWBTXVak/iMlWbrPNwU
eu371W4pMkZaDHq0RqFbzkX5ePCcUqeOHZPz5qrjASkOrDrp75D5Zho6UcMEaOmA
3E883LZQCY+zh9H9n34UUIqla2js7pnq9Ab0uYOVe5F+TirH3qAzIrpfbralGnED
6lgLbJaxU3eUTu13L/xgUfH2jqa4mvDBS4g+rBqj4J2Qcbc/fjnUEintu2HN8QGJ
EpkNSFAjuWXQ0Dmjidl710DzcVZy+WMcHmANeXZ7MSXXvGwUV+RC5Kr/PzVATkCw
JUY+cemU3E/+vp+oUOF1OxvISKKEF1QH9p64kyE0ezPJ5SsVz4nzi6CE+bkCDQRg
XeS5ARAAkDhiIBBJa1Hml3MB3yDDg7JvVbDAA6Bi9w5Xeym0sqIdM623U2O/RQlz
zfZXsg3f4a66Zjot1t1axFZXXNw6p999kZtE5xk10Qcq6zfmUDM6yrlmatmCImu+
mlWRrW7Yqba7DpgWJ5m4FXGTp08Np8nNJiICaG7Hfk7HtZIjzMr95ffaTaXsiSLa
dvP0o2knP0cvBLPWQKMU89ADI8xh80mm6omsnSby2fluUeugSKNoKxJqdoqWCWD5
br0Ypk3UyG9gUcoJUyQmC2gUUs9g1ksyeq/xGlrTcJ9l7c5I2ibyfrRrafWyE5Zg
/vlKLBffnsSkIrV+0c4RFjjlteRm6Eig6lVmXbOXbfSopIyvG9IYmbgY5tRX/aMv
pOeUcbqx9Wfsup1MYY7th5B/XSXJQCsRg2k1nMl7Hgq9MVrmkKCuX1IvWBmAilrx
lAqdldqSA+8/ZJxQyapdDtw8ecV0NIFFG2tCxodnJcl5RVZRGsO4gNjQVZW6Hp3k
tpcDLsJkpNhnsH8yK9hmBve//KBftpzb0I13W7bJMJoz6rg52FDbO99NZmLJl9N8
5mCPNISvhaHFOLKcyFpROnue2eiER8OLv/M24n/2nvp1SWwkhv+iM6FIT1yCFpxX
jXxCISJM1oYmTM9e5Wj30jZAvYcgwD9KY/TGzSZo1W/BPiuIQiUAEQEAAYkCPAQY
AQgAJgIbDBYhBOYJE+TfIJkH2OMNlmWal8nPKnlaBQJn4AoyBQkQ7WzWAAoJEGWa
l8nPKnlaLswQAKEAQnJpY33PV2aUKfP5yXjYZFV97xwB/VvhiGnNOaQomXoTNG3y
u9RXC/PcWMuqCtYHw5v2HxrU8xprUCwNhSRXyRtJx7KdK2VOlQCpElJT155Tryiw
yeRDoeTo/cSQ2TYk9IMvhJW88eu3jE8NLUEzQyt04aOsIP5nRWVqYvrjUiMruHUB
TH3sQAP1xba/zjzCWH009xeB52slsyd0Mod967n6AWBaun/7GTRrr5Q/c9UiICuZ
fP8/FRJr4O9bFWgFGHZ3FzGnnWa5MPFKpEecjOvcBHrXILxlw1Y8NK4WZioS/obi
DrzV8zXKrUcofBPovL8Jggy7rTmml+Sf2y4krbcaN1bmW30ZV4T/GsgpchS4RCvY
viHGcbiWChMeUSWAUlnF83TFjvQEzWyhqTKdMGghgnegw3vRze7MLwMDL5G5zIJv
4VaR+VDFVrZsf0crWKiiwtYjahXsZSFntvUAlHd2LASqX0IMqeYs68QSuRMh5tQJ
rX8qbBx/rEvx3c8+VKqsWq3WGn5ePenINE5Rl/fqukgc7DO6cq3uQhdKEgSjuyT8
7SdREY/wW3/XGYlMvsT04t+9nIlHmv66kIaU0MDyDsQ6GVajYpMDhZJErh1iZUHJ
tWNaIlVoXcck4xl3nE5l0H8OO8ZtYfxPMBt+n2yI9CCoKH4l3Ydyft7KmDMEYHHg
IBYJKwYBBAHaRw8BAQdAOm0RDYTmM6omlqoTx6Wy65agVJ4q8EPGczNnYOrHyo20
HUpha3ViIFplbGVua2EgPGJ1a2thQHBocC5uZXQ+iJMEExYIADsCGwMFCwkIBwIG
FQoJCAsCBBYCAwECHgECF4AWIQTCjZN1dWA+tKu3JYYcB3ncXAqd5AUCYHHi+QIZ
AQAKCRAcB3ncXAqd5MZdAP0eAbdHgjHqKYol3QaXRhErAvvLHPSEXN5cAImF3zII
CgD+NJZZMQDXd1OOKDt+YLiIqIq2ibRhOP5mZryPCGkq9QG0J0pha3ViIFplbGVu
a2EgPGpha3ViLm9wZW5zc2xAZ21haWwuY29tPoiQBBMWCAA4FiEEwo2TdXVgPrSr
tyWGHAd53FwKneQFAmBx4owCGwMFCwkIBwIGFQoJCAsCBBYCAwECHgECF4AACgkQ
HAd53FwKneS0NwEAt0IRpoCN/JNwg1TIseybpmC65nSzYVyX10xe4Ji50dcBAI6T
YA+47z6F4IVRg2c8Vtg1xktot7b/tKn6hgdv59sLtCdKYWt1YiBaZWxlbmthIDxq
YWt1Yi56ZWxlbmthQGdtYWlsLmNvbT6IkAQTFggAOBYhBMKNk3V1YD60q7clhhwH
edxcCp3kBQJgceAgAhsDBQsJCAcCBhUKCQgLAgQWAgMBAh4BAheAAAoJEBwHedxc
Cp3k+3MBAKuK15XyHw+sdFATFuW9vN+lXqHnYid2jRzQUoh5wG/FAQDcBXQgXRfe
72XRoxY4AE3E4onGMfzW3kbDKDVF7o4zDrg4BGBx4CASCisGAQQBl1UBBQEBB0Bm
2FjWsSDUwL5nbAhtl+rwnGLKbWiVYrwHQocgKFj6GwMBCAeIeAQYFggAIBYhBMKN
k3V1YD60q7clhhwHedxcCp3kBQJgceAgAhsMAAoJEBwHedxcCp3k8ZwA/jLRHUBK
IeRAxeGJhoqJRr2oTxrP887FuX9/ikSX21bcAQD90AB2fu6dpAkOFyZzX9UdE7Qx
tBhHVWRx3DRr4P/cDpgzBGYgDVwWCSsGAQQB2kcPAQEHQET/J56AhF3VoW7Xvfyd
S3kGVTEN7zzOwA06KmRjb1w3tCZDYWx2aW4gQnVja2xleSAoUEhQKSA8Y2Fsdmlu
YkBwaHAubmV0PoiTBBMWCgA7FiEEnX+ZoMuPBcimlY1iVql692AKOaYFAmYgDVwC
GwMFCwkIBwICIgIGFQoJCAsCBBYCAwECHgcCF4AACgkQVql692AKOaabxgD/U1oP
DkgLiGarAcMXetpNNWGxtPCQpanwfP2j3qBKj3EBAPvlcIwuQaaXpSssDOgrWLcU
dLTPs7dzo4ypTeNNAMIGuDgEZiANXBIKKwYBBAGXVQEFAQEHQPkjqvdb94qwtcIm
UfZHrErbLpbCfpYhQtNaC7k/TocBAwEIB4h4BBgWCgAgFiEEnX+ZoMuPBcimlY1i
Vql692AKOaYFAmYgDVwCGwwACgkQVql692AKOaZG2AD/aKqJAuXwOclj3Yt31xhJ
eCuurZHmyDmuT25ttx54OD8BAKZcfBeklQ+7X7M6I6iQ3+VuMOKtBdMJJz0gi4wr
pXQE
=q+Yg
-----END PGP PUBLIC KEY BLOCK-----

-----BEGIN PGP PUBLIC KEY BLOCK-----

mQINBGZLNvEBEADLRJ//ovPDl1oL8OUdCevYx12mazjaxcimm2ei5WxRxYlB1LSj
jFzWrzvSlwq8WXoxjyb7lLw+VHSXokO88Jx3zAUpepZNT2wQ3/YTGw4i6wq2uyyP
sgVPELe9qr0Y8mROPf2CHsDfEaFzoXYZZ31ucXzP7N1bIH0uvH3THYOMAQ3Ag637
py8exU5lehs9m8mLv0pQIDsWJUCsXsjiDptI0/8qRaBbuP10bo8gJlxCH+7UQI+A
dac0drMgbIWqfsVhm64nbvOIwxMz+wliNztXlkw1anmK5Q9ceUrpkkjiFuEvstyy
Blwqpr8a4sOfT7wxjs/2wg7IdJvcQZFVbVRw+WVZ3eVgSkoqoCGd2KrbaQjktCih
kmSxd6gTCJYUOVUl/Nxrz35AW7kIOUICsYrd6Zh7Xr+jyjfVcGs55bbxzl5QCsPc
DtHXdOQ2oAVC3zqkjWDDloFdGHIVW5W7flc9jvfg7otmmSlsCTABc97JCoOdlDoR
tp4wLg50RZXfQJ8FNpqebyFhFmGO4AGkbYuycGiupVq5rfdWM46V7K0yWftSZSKF
HiD+B2hq3docuk+o4g2AdZV0eEH3/UKRz0L1p5VCWk/yU+oF+tzDrhCwfGSy8PQL
4zfnkfttSFMmrlrgohyAF5QvBYZt99MWO1Hr8O2hPOkcZ6CLgsvrMaD2mQARAQAB
tCtTYWtpIFRha2FtYWNoaSAoZm9yIHBocC5uZXQpIDxzYWtpQHBocC5uZXQ+iQJO
BBMBCAA4FiEEBhbpPZWvRxJD4mdhdwQm4X67s90FAmZLNvECGwMFCwkIBwIGFQoJ
CAsCBBYCAwECHgECF4AACgkQdwQm4X67s90g4Q/6A8hovyPm0qUadEJzXEWVLdLB
qwHf5Aagxu8TEQUhn7ku/VKWfx8UBaI/5hTpPEC+LexkeweaK3xjs6DeIyFeeY87
ZpujZ8U2pS1DgrYNH11lRPcJM9sh5X5p0EnsHZMAIAqNq+k5bv0jYNNKduf5v44C
ls1mg+I5CBhpgeZGRE+QLxRGb3YoQC3HwRnXHCYNsQNYbRhYgsUwfwxoHiGpM1Ej
eeX37mVhETDnJNnxKf/7r0nAVcQZqz1okJyhNBpM1Y/NgCxuTyG222TZmJOYuNby
ZIT2ZG6z0IbQZbst4rhWmJk1oEA8EV5chMMOwP0eUuKWBHqT/QCmrX9JyWKeTm7X
Jb1LBi416esrTNKicrPnhZopTkEEHFc60RvchO8XlZYepisiJprUjW2T2KY+FbKw
wQOFDQk99dVwYocd4CzzkdG/dKeda+Dj6oz/lIniEtPQREC/rZGlQNw+czkHhvk1
Vu49BrYMY+AfnJ3QZqQr5xAQaVehnpcxaUPM23pOmLiFm0lrtuU32yIXeCy+UEX+
0k2f6iODlr+3792cbpMcH7Bk0YNOm8b9SNYvqVPrunFGttg04TtnTMFpDaN3i8GW
oMXj+NmrFnQLBy/dpc3YvRD/hqtRXDwRXTNoIaCg1vttFWV4F86XHs0p5xoKeUfH
oHlV1320gZCBn8dm+a65Ag0EZks28QEQANZ9UNHdyJJSGTqjLIPQQET+E11Nmpwb
sLjLiQMFKZEmL0VPtqjh2qtLeKGSD9BQQNLHfEU48M3GiUNqH21UDWh6ObDCGE2u
PvL3U/C8w+2F4IABv8WD8FVaZkREX9MoRiPVd1HOEAOYsgP9Qwv60jVM+REDSnk/
0lUfbcvt/JIxNYoRnBLR2LEG2WV0GNnBFpkJ5+KzR/cdtZEoxodNJvE2QOeN2BM7
Rj4LTtwxh6sCI2Xd60Si7nNtHSn/C/1/+KA2igH/w1+buS3pJXkhtH+Z6/8kBdUz
7GgfIzRBfnJ78+H9PFjIPPa0/waRsaS1Sgk9FLNFXMrmjzg8v67qmhjgMrdPcVGk
W0S2WvK3pY1FiYf0iMlfW4kKwPJAKNM3x+x35Bsf2a6tIAQkZOjcidJppenAX3tl
9T0vpuCO4eaEKnP2Dyxgnpm8+Um9kwhapjhU0tJVx//vMzqovb6dG5zSiG1XZt5k
0YpJMVEuuYpuwTnJCBkZz8nzb7+JQ12he0IT2mPsXgMlq2Ddj9OnuoCZpeM/Ykjx
OGwVZfNvEJUUhbcH6Vu5gPnG3+5tXbwWnC1jeA45pKkq4BHYQnoBW03OAcavKxUW
ud8Xh5E4FNAWJQ2VyrI1Bl1raXL7mvbDxRXMLGyaz2KDRRoKtpYCvjoBr6azfIR1
yjDTheJpAHGxABEBAAGJAjYEGAEIACAWIQQGFuk9la9HEkPiZ2F3BCbhfruz3QUC
Zks28QIbDAAKCRB3BCbhfruz3b8ND/4mPooynDsIAXQ2ygvAXC/zpIKm1fc9f81J
u3hC99vMBdTHjMD4miBxRrlUZNAWqpzORMJqMZFQy0BHvwphKDtRyhE+PPu9pQHq
cOe9weiCKu+MCTrlS0hUuzg7RBrzzOrf2GuQYS8SbHBqb1CrWQFnOJ0L5tGHd0sR
q7KPY9P3Wy9OPX1JX8eo637LgxKbWC5i4spd4qRpXYU1xaeoG8s353O8oTdNCfHq
xKI2G3lu3J9ojMNUxRbi0ATS3VOXGkLkhyvtDeXDwe+N+9cTRwMc8QEEYvBhL9+B
1NUMzRfC3GSQ+e9oDBVrvtEYs4pY+H56ETm56Dl2j8uiyCGHSsjjL48lDc1pQXnl
G9aQn/zANQFG6PdMsYYV+qN+Ktp3sd6a3LN83UaeGxfaOn3A+SsShQenAGKUmGWi
DNMJdeCrLwXvSFJO+qEFMrkEFnKb1lPCLkGer/5oM/KLyLZDzOy3+3/Wl0B0nFZI
lNw5VZB9OUC4PcR7ZPsFhb5QIxpQrq3o6g1eQXrxTrZVJzk/0K3Lm+U29jbmGgQT
4S31gnxwzXNKEkVFnMlCnAFHA3XR8l3W2tswMbPSSogcNS3GPro6LL3ImaCVxmrI
/w1QgGZrxP53PNSyH0MxH1kVTqTcxnGJL6BUt/pTdScHstABscsNO/h9K2rfsNin
uiQPA0QDZA==
=67ZA
-----END PGP PUBLIC KEY BLOCK-----
